X:1

T:Who told you these false stories

M:2/4

L:1/8

S:Stanford/Petrie (1905), No. 655

Z:AK/Fiddler’s Companion

K:F

(A/B/) | c/B/A/>G/ FG | A>B c/d/_e/G/ | c/B/G/>F/ E/F/G/A/ | B3 A/B/ |

c/B/A/>G/ FG | A>B c/d/_e/G/ | c/>B/ G/>E/ FF | F3 || c/d/ | _e/d/c/B/ A>B |

c<f_e c>B | A/>F/G/>F/ E/F/G/A/ | B3 A/B/ | c/B/A/>G/ FG | A>B c/d/_e/G/ |

c/B/ G/>E/ FF | F3 ||

                       


WHO WILL DANDLE MY MARY?  (Co a ni mire ri Mairi). Scottish, Slow Air (9/8 time). G Major. Standard tuning. AAB. This tune "is a tender lullaby or baby‑song, to which Mrs. Fraser of Bruiach, formerly mentioned, composed admirable verses, while dandling her daughter, the present Mrs. Nicholson of Inverness. There are, however, other words more ancient. The mention of its being a 'baby‑song' will lead the poet into the train of ideas suited to it" (Fraser). Fraser (The Airs and Melodies Peculiar to the Highlands of Scotland and the Isles), 1874; No. 175, pg. 71.

